X: 1
T: Highland Chluain Ard
M: 2/4
L: 1/8
R: polka
K: Dmaj
A2 F/2E/2D|Ad dB|AA GF|EA AF|D2 FA|
BG d2|1eg fe|de dB:|2eg fe|dA Bc||
d2 f/2e/2d|ad f/2e/2d|eg fe|dA Bc|
d2 f/2e/2d|ad f/2e/2d|eg fe|dA  Bc|
d2 f/2e/2d|ad f/2e/2d|eg fe|dA Bc|
de fb|af fd|eg fe|de dB||
